client/public/facebook.svg

<?xml version="1.0" ?><!DOCTYPE svg  PUBLIC '-//W3C//DTD SVG 1.1//EN'  'http://www.w3.org/Graphics/SVG/1.1/DTD/svg11.dtd'><svg height="100%" style="fill-rule:evenodd;clip-rule:evenodd;stroke-linejoin:round;stroke-miterlimit:2;" version="1.1" viewBox="0 0 512 512" width="100%" xml:space="preserve" xmlns="http://www.w3.org/2000/svg" xmlns:serif="http://www.serif.com/" xmlns:xlink="http://www.w3.org/1999/xlink"><path d="M449.446,0c34.525,0 62.554,28.03 62.554,62.554l0,386.892c0,34.524 -28.03,62.554 -62.554,62.554l-106.468,0l0,-192.915l66.6,0l12.672,-82.621l-79.272,0l0,-53.617c0,-22.603 11.073,-44.636 46.58,-44.636l36.042,0l0,-70.34c0,0 -32.71,-5.582 -63.982,-5.582c-65.288,0 -107.96,39.569 -107.96,111.204l0,62.971l-72.573,0l0,82.621l72.573,0l0,192.915l-191.104,0c-34.524,0 -62.554,-28.03 -62.554,-62.554l0,-386.892c0,-34.524 28.029,-62.554 62.554,-62.554l386.892,0Z"/></svg>

<svg viewBox="0 0 512 512" xml:space="preserve" xmlns="http://www.w3.org/2000/svg" fill-rule="evenodd" clip-rule="evenodd" stroke-linejoin="round" stroke-miterlimit="2"><path d="M449.446 0C483.971 0 512 28.03 512 62.554v386.892C512 483.97 483.97 512 449.446 512H342.978V319.085h66.6l12.672-82.621h-79.272v-53.617c0-22.603 11.073-44.636 46.58-44.636H425.6v-70.34s-32.71-5.582-63.982-5.582c-65.288 0-107.96 39.569-107.96 111.204v62.971h-72.573v82.621h72.573V512H62.554C28.03 512 0 483.97 0 449.446V62.554C0 28.03 28.029 0 62.554 0h386.892Z" fill="#BE857A" class="fill-000000"></path></svg>
